svgs/thin/face-grin-wide.svg

<svg xmlns="http://www.w3.org/2000/svg" viewBox="0 0 512 512"><!--! Font Awesome Pro 6.4.2 by @fontawesome - https://fontawesome.com License - https://fontawesome.com/license (Commercial License) Copyright 2023 Fonticons, Inc. --><path d="M496 256A240 240 0 1 0 16 256a240 240 0 1 0 480 0zM0 256a256 256 0 1 1 512 0A256 256 0 1 1 0 256zm256.3 91.8c-43 0-84.1-5.5-121.5-15.4c-3.9-1-7.1 .3-8.7 1.8c-.7 .7-.9 1.2-.9 1.4l0 0c0 .1-.1 .7 .5 1.9c25 46.8 74.1 78.5 130.5 78.5s105.5-31.7 130.5-78.5c.7-1.2 .6-1.8 .5-1.9l0 0c0-.2-.2-.7-.9-1.4c-1.6-1.5-4.8-2.8-8.7-1.8c-37.4 9.9-78.4 15.4-121.5 15.4zm144.6-2.7C373.2 396.8 318.8 432 256.3 432s-116.9-35.2-144.6-86.9c-9.1-17 8.7-33.1 27.3-28.2c36 9.6 75.6 14.9 117.3 14.9s81.4-5.3 117.3-14.9c18.6-4.9 36.4 11.2 27.3 28.2zM160.5 150.3c-5.1 10.3-8.5 25-8.5 41.7s3.4 31.4 8.5 41.7c5.4 10.7 11.3 14.3 15.5 14.3s10.1-3.6 15.5-14.3c5.1-10.3 8.5-25 8.5-41.7s-3.4-31.4-8.5-41.7C186.1 139.6 180.2 136 176 136s-10.1 3.6-15.5 14.3zm-14.3-7.2c6.2-12.4 16.3-23.2 29.8-23.2s23.6 10.7 29.8 23.2c6.5 12.9 10.2 30.2 10.2 48.8s-3.8 35.9-10.2 48.8C199.6 253.3 189.5 264 176 264s-23.6-10.7-29.8-23.2C139.8 227.9 136 210.6 136 192s3.8-35.9 10.2-48.8zM312 192c0 16.7 3.4 31.4 8.5 41.7c5.4 10.7 11.3 14.3 15.5 14.3s10.1-3.6 15.5-14.3c5.1-10.3 8.5-25 8.5-41.7s-3.4-31.4-8.5-41.7C346.1 139.6 340.2 136 336 136s-10.1 3.6-15.5 14.3c-5.1 10.3-8.5 25-8.5 41.7zm24-72c13.5 0 23.6 10.7 29.8 23.2c6.5 12.9 10.2 30.2 10.2 48.8s-3.8 35.9-10.2 48.8C359.6 253.3 349.5 264 336 264s-23.6-10.7-29.8-23.2C299.8 227.9 296 210.6 296 192s3.8-35.9 10.2-48.8c6.2-12.4 16.3-23.2 29.8-23.2z"/></svg>

<svg xmlns="http://www.w3.org/2000/svg" viewBox="0 0 512 512"><!--! Font Awesome Pro 6.1.1 by @fontawesome - https://fontawesome.com License - https://fontawesome.com/license (Commercial License) Copyright 2022 Fonticons, Inc. --><path d="M256.3 432C193.7 432 139.3 396.8 111.6 345.1C102.6 328.1 120.3 311.1 138.9 316.9C174.9 326.5 214.6 331.8 256.3 331.8C297.1 331.8 337.7 326.5 373.6 316.9C392.2 311.1 409.1 328.1 400.9 345.1C373.2 396.8 318.8 432 256.3 432V432zM134.8 332.4C130.9 331.3 127.7 332.7 126.1 334.2C125.4 334.9 125.3 335.4 125.2 335.6C125.2 335.7 125.1 336.3 125.8 337.5C150.8 384.3 199.9 416 256.3 416C312.7 416 361.8 384.3 386.8 337.5C387.5 336.3 387.4 335.7 387.3 335.6C387.3 335.4 387.1 334.9 386.4 334.2C384.9 332.7 381.6 331.3 377.7 332.4C340.4 342.3 299.3 347.8 256.3 347.8C213.2 347.8 172.2 342.3 134.8 332.4V332.4zM146.2 143.2C152.4 130.7 162.5 120 176 120C189.5 120 199.6 130.7 205.8 143.2C212.2 156.1 216 173.4 216 192C216 210.6 212.2 227.9 205.8 240.8C199.6 253.3 189.5 264 176 264C162.5 264 152.4 253.3 146.2 240.8C139.8 227.9 136 210.6 136 192C136 173.4 139.8 156.1 146.2 143.2V143.2zM160.5 150.3C155.4 160.6 152 175.3 152 192C152 208.7 155.4 223.4 160.5 233.7C165.9 244.4 171.8 248 176 248C180.2 248 186.1 244.4 191.5 233.7C196.6 223.4 200 208.7 200 192C200 175.3 196.6 160.6 191.5 150.3C186.1 139.6 180.2 136 176 136C171.8 136 165.9 139.6 160.5 150.3zM365.8 143.2C372.2 156.1 376 173.4 376 192C376 210.6 372.2 227.9 365.8 240.8C359.6 253.3 349.5 264 336 264C322.5 264 312.4 253.3 306.2 240.8C299.8 227.9 296 210.6 296 192C296 173.4 299.8 156.1 306.2 143.2C312.4 130.7 322.5 120 336 120C349.5 120 359.6 130.7 365.8 143.2zM320.5 233.7C325.9 244.4 331.8 248 336 248C340.2 248 346.1 244.4 351.5 233.7C356.6 223.4 360 208.7 360 192C360 175.3 356.6 160.6 351.5 150.3C346.1 139.6 340.2 136 336 136C331.8 136 325.9 139.6 320.5 150.3C315.4 160.6 312 175.3 312 192C312 208.7 315.4 223.4 320.5 233.7zM512 256C512 397.4 397.4 512 256 512C114.6 512 0 397.4 0 256C0 114.6 114.6 0 256 0C397.4 0 512 114.6 512 256zM256 16C123.5 16 16 123.5 16 256C16 388.5 123.5 496 256 496C388.5 496 496 388.5 496 256C496 123.5 388.5 16 256 16z"/></svg>
